**kern	**kern	**dynam
*part1	*part1	*part1
*staff2	*staff1	*
*I"Piano	*	*
*clefF4	*clefG2	*
*k[f#c#g#d#]	*k[f#c#g#d#]	*
=1	=1	=1
16E 16B	16dn 16a 16b	mf
*clefG2	*	*
16dnLL 16a 16b	(16fff#LL	.
16d 16a 16b	16dddn	.
16d 16a 16b	16bb	.
16d 16a 16b	16ff#	.
16dJJ 16g# 16b	16gg#JJ	.
=	=	=
*^	*^	*
16dnLL 16f# 16b	8ryy	16ff#KL	16ff#LL	.
16dJJ 16fn 16b	.	8bb	16ffn	.
(8aL	16c#LL 16e	.	16ee	.
.	16cn 16d#X	16aaL	16dd#X	.
16g#L	16B 16dn	16gg#	16ddn	.
16f#XJJ)	16AJJ 16d	16ff#XJJ)	16ddJJ	.
*v	*v	*	*	*
*	*v	*v	*
*clefF4	*	*
=	=	=
!	!	!LO:DY:a
16G#LL 16dn 16e	16ddnLL 16ee	p <
16G# 16d 16e	16b 16dd 16ee	.
16G# 16d 16e	16b 16dd 16ee	.
16G# 16d 16e	16b 16dd 16ee	.
16G# 16d 16e	16b 16dd 16ee	.
16G#JJ 16d 16e	16bJJ 16dd 16ee	mp [[
=	=	=
!	!	!LO:DY:a
16G#LL 16B#X 16e	16b#XLL 16ee	p <
16G# 16B# 16e	16b# 16ee	.
16G# 16B# 16e	16b# 16ee	.
16G# 16B# 16e	16b# 16ee	.
16G# 16B# 16e	16b# 16ee	.
16G#JJ 16B# 16e	16b#JJ 16ee	mp [[
=	=	=
!	!	!LO:DY:a
16ALL 16c# 16e	16aLL 16cc#	p <
16A 16c# 16e	16a 16cc#	.
16A 16c# 16e	16a 16cc#	.
16A 16c# 16e	16a 16cc#	.
16A 16c# 16e	16a 16cc#	.
16AJJ 16c# 16e	16aJJ 16cc#	.
=	=	=
16G#LL 16c# 16e#X	16bnLL 16cc#	.
16G# 16c# 16e#	16b 16cc#	.
16G# 16c# 16e#	16b 16cc#	.
16G# 16c# 16e#	16b 16cc#	.
16G# 16c# 16e#	16b 16cc#	.
16G#JJ 16c# 16e#	16bJJ 16cc#	mp [[
=	=	=
*^	*	*
16c#LL 16f#	4.F#	16aLL 16cc#	.
16c# 16f#	.	16a 16cc#	.
16c# 16f#	.	16a 16cc#	.
16c# 16f#	.	16a 16cc#	.
16c# 16f#	.	16a 16cc#	.
16c#JJ 16f#	.	16aJJ 16cc#	.
*v	*v	*	*
=	=	=
*-	*-	*-
!!!system-decoration: {(s1,s2)}
